X:45
T:Lady Montgomery,aka. RDO.45
M:C|
L:1/8
Q:1/2=80
C:by Lord Eglintoun,untitled in ms
S:Robert D. Owen MS,Indiana,1826.
R:.Reel
O:Indiana,USA
A:New Harmony
N:untitled in ms
Z:vmp.Chris Partington
K:Bb
b2b>f (de)fd|b2b>g (ab)c’d’|b2b>f (de)fd|cc’c’b abc’d’:|!
B<B fB dB f2|B<B fB (de)fg|B<B fB dBf2|(ed)cB ABcd|!
B<B fB dB f2|B<B fB (de)fg|fd ec dB cA|[Bb][Gg]fd cc’c’d’|]

